X: 23454
T: Let The Sleeping Cat Lie
R: jig
M: 6/8
K: Gmajor
B3 GAB|dBG EFG|FAF DFA|dfe dBA|
B3 GAB|ded BAG|FAF DEF|AGF G2A:|
Bdg gdB|ceg gec|Bdg Aeg|fed d2c|
Bdg gdB|ceg gec|BdB ecA|AGF G2A:|

